app2/images/gmo.svg

<svg width="36" height="36" viewBox="0 0 36 36" fill="none" xmlns="http://www.w3.org/2000/svg">
<path d="M18 0C8.07419 0 0 8.07497 0 18C0 27.925 8.07419 36 18 36C27.9258 36 36 27.925 36 18C36 8.07497 27.9258 0 18 0ZM18 34.5C8.90184 34.5 1.49998 27.0982 1.49998 18C1.49998 13.7204 3.15148 9.82884 5.8332 6.89372L14.2692 15.3297L9.41161 23.8308C9.1421 24.3011 9 24.8364 9 25.3799C9 27.1003 10.4004 28.5 12.1201 28.5H23.8799C24.8518 28.5 25.7108 28.0436 26.2836 27.3441L29.1063 30.1668C26.1712 32.8485 22.2796 34.5 18 34.5ZM19.5981 14.622L21.5288 18H19.0606L16.1403 15.0797L16.4019 14.622C16.4663 14.5085 16.5 14.3803 16.5 14.25V9H19.5V14.25C19.5 14.3804 19.5337 14.5086 19.5981 14.622ZM22.3861 19.5L24.8215 23.7609L20.5606 19.5H22.3861ZM16.9395 18H14.4716L15.369 16.4295L16.9395 18ZM18.4395 19.5L25.2021 26.2626C24.9112 26.6963 24.4405 27 23.8799 27H12.1201C11.2266 27 10.5 26.2727 10.5 25.3792C10.5 25.0972 10.5732 24.8196 10.7139 24.5757L13.6143 19.5H18.4395ZM30.1668 29.1063L26.9485 25.888C26.9761 25.7214 27 25.5534 27 25.3792C27 24.8357 26.8579 24.3011 26.5899 23.8316L21 14.0508V9C21.4146 9 21.75 8.66454 21.75 8.24998C21.75 7.83541 21.4146 7.49995 21 7.49995H15C14.5855 7.49995 14.25 7.83541 14.25 8.24998C14.25 8.66454 14.5855 9 15 9V13.9395L6.89372 5.8332C9.82884 3.15155 13.7204 1.49998 18 1.49998C27.0982 1.49998 34.5 8.90184 34.5 18C34.5 22.2796 32.8485 26.1712 30.1668 29.1063Z" fill="#F8C307"/>
</svg>

<svg width="36" height="36" viewBox="0 0 36 36" fill="none" xmlns="http://www.w3.org/2000/svg"><path d="M18 0C8.074 0 0 8.075 0 18s8.074 18 18 18 18-8.075 18-18S27.926 0 18 0zm0 34.5C8.902 34.5 1.5 27.098 1.5 18c0-4.28 1.651-8.171 4.333-11.106l8.436 8.436-4.857 8.5a3.119 3.119 0 002.708 4.67h11.76c.972 0 1.83-.456 2.404-1.156l2.822 2.823C26.171 32.848 22.28 34.5 18 34.5zm1.598-19.878L21.528 18h-2.467l-2.92-2.92.26-.458a.754.754 0 00.099-.372V9h3v5.25c0 .13.034.259.098.372zm2.788 4.878l2.436 4.26-4.261-4.26h1.825zM16.94 18h-2.467l.897-1.57L16.94 18zm1.5 1.5l6.763 6.763c-.29.433-.762.737-1.322.737H12.12a1.622 1.622 0 01-1.406-2.424l2.9-5.076h4.825zm11.728 9.606l-3.219-3.218a3.06 3.06 0 00.052-.509c0-.543-.142-1.078-.41-1.547L21 14.05V9a.75.75 0 100-1.5h-6A.75.75 0 1015 9v4.94L6.894 5.833C9.829 3.152 13.72 1.5 18 1.5c9.098 0 16.5 7.402 16.5 16.5 0 4.28-1.651 8.171-4.333 11.106z" fill="#F8C307"/></svg>
